P3
16 10
255
245 247 250   245 247 250   245 247 250   245 247 250   245 247 250   245 247 250   245 247 250   245 247 250   245 247 250   245 247 250   245 247 250   245 247 250   245 247 250   245 247 250   245 247 250   245 247 250
245 247 250   245 247 250   245 247 250   245 247 250   245 247 250   245 247 250   245 247 250   245 247 250   245 247 250   245 247 250   245 247 250   245 247 250   245 247 250   245 247 250   245 247 250   245 247 250
245 247 250   245 247 250   245 247 250   245 247 250   245 247 250   245 247 250   245 247 250   245 247 250   245 247 250   245 247 250   245 247 250   245 247 250   245 247 250   245 247 250   245 247 250   245 247 250
245 247 250   245 247 250   245 247 250   245 247 250   245 247 250   245 247 250   245 247 250   245 247 250   245 247 250   245 247 250   245 247 250   245 247 250   245 247 250   245 247 250   245 247 250   245 247 250
245 247 250   18 110 130    18 110 130    18 110 130    18 110 130    18 110 130    245 247 250   245 247 250   205 88 39     205 88 39     205 88 39     205 88 39     205 88 39     245 247 250   245 247 250   245 247 250
245 247 250   18 110 130    226 244 248   226 244 248   226 244 248   18 110 130    245 247 250   245 247 250   205 88 39     255 228 211   255 228 211   255 228 211   205 88 39     245 247 250   245 247 250   245 247 250
245 247 250   18 110 130    226 244 248   18 110 130    226 244 248   18 110 130    245 247 250   245 247 250   205 88 39     255 228 211   205 88 39     255 228 211   205 88 39     245 247 250   245 247 250   245 247 250
245 247 250   18 110 130    226 244 248   226 244 248   226 244 248   18 110 130    245 247 250   245 247 250   205 88 39     255 228 211   255 228 211   255 228 211   205 88 39     245 247 250   245 247 250   245 247 250
245 247 250   18 110 130    18 110 130    18 110 130    18 110 130    18 110 130    245 247 250   245 247 250   205 88 39     205 88 39     205 88 39     205 88 39     205 88 39     245 247 250   245 247 250   245 247 250
245 247 250   245 247 250   245 247 250   245 247 250   245 247 250   245 247 250   245 247 250   245 247 250   245 247 250   245 247 250   245 247 250   245 247 250   245 247 250   245 247 250   245 247 250   245 247 250
